X: 04033
T: HAPPY DAY IN MAY
C: Bob McQuillen 20 May 78
B: Bob's Note Book 04 #33
%R: Waltz
Z: 2020 John Chambers <jc:trillian.mit.edu>
M: 3/4
L: 1/4
K: D
FG \
| AFF | GAB | AF>F | Ffg | fe>e | efe | edB | AFG |
| AFF | GAB | AF>F | Ffg | fe>e | edc | d3- | d :|
|: de \
| ff>f | edB | BA>F | A2d | ee>f | ede | fdB | Ade |
| ff>f | edB | BA>F | A2d | eeg | f2e | d3 | d :|
%%begintext align
%% With Love & Best Wishes
%% always to Mr. and Mrs.
%% Randy Miller on their
%% Happy Wedding Day.
%%endtext

%%sep 1 1 500

%%sep 1 1 500

